X:1
T:Title
%%score { ( 1 3 ) | 2 }
L:1/8
Q:1/4=100
M:6/8
K:Eb
V:1 treble nm="Grand Piano"
V:3 treble 
V:2 bass 
V:1
 EFG [GB]2 [Ac] | [GB]3 [EG]2 [GB] | [Ac]2 [GB] [FA]2 [=EG] | [FA]6 | [FA][DF][EG] [FA]2 [GB] | %5
w: James~M.~Black * * * *|||||
 [DAc]3 [DAc]2 [DAc] | [FAd]2 [DAc] [EGB]2 [B,FA] | G6 | EFG [GB]2 [Ac] | [GB]3 G2 G | F2 =A c2 e | %11
w: ||||||
 d6 | ccd e2 c | [GB]3 [EG]2 [EG] | [GB]2 [FA] [EG]2 [DF] |[M:5/8] E-E- E3 |[M:1/8] [GB] | %17
w: ||||||
[M:3/4] [GB]2 [_G=A] [=GB]2 [Ge] | [Ad]6 | z2 z .d3 | B6 | [B,EG]2 [B,EG] [GB]2 [GB] | %22
w: |||||
 [Ge]3 [Ge]2 [GB] | [Ac]2 [Ac] [=Af]2 [Ae] | [Ad]6 | [GB]2 [_G=A] [=GB]2 [Ge] | [Ad]6 | z2 z .d3 | %28
w: ||||||
 [GB]6 | c3 [Ad]2 [Ad] | [Ge]3 [GB]2 [EG] | [GB]2 [FA] [EG]2 [DF] | E6 |] %33
w: |||||
V:2
 [E,G,][E,A,E][E,B,E] [E,E]2 [E,E] | [E,E]3 [E,B,]2 [E,B,] | [B,,B,]2 [B,,B,] [B,,B,]2 [B,,B,] | %3
 [B,,B,]6 | [B,,B,][B,,B,][B,,B,] [B,,B,]2 [B,,B,] | B,,3 B,,2 B,, | B,2 B, B,,2 B,, | [E,B,E]6 | %8
 [E,G,][E,A,E][E,B,E] [E,E]2 [E,E] | [E,E]3 [E,B,E]2 [E,B,E] | %10
 [F,=A,E]2 [F,CE] [F,A,E]2[K:treble] [F,A,F] | [B,F]6 | [A,DF][A,DF][A,B,F] [G,B,E]2 [A,EA] | %13
 [E,E]3 [E,B,]2 [E,B,] | [B,,B,]2 [B,,B,] [B,,B,]2 [B,,A,] |[M:5/8] [E,G,]-[E,G,]- [E,G,]3 | %16
[M:1/8] [E,E] |[M:3/4] [E,E]2 [E,E][E,E] [E,E][E,B,] | [F,B,]2 B, B,3 | B,,B,, B,,B,, B,,B,, | %20
 E,2 B,, E,3 | E,2 E, [E,E]2 [E,E] | [E,B,]3 [E,B,]2 [E,E] | [A,E]2 [A,E] [F,E]2 [F,E] | %24
 [B,F]2 B, B,2 [B,DA] | [E,E]2 [E,E][E,E] [E,E][E,B,] | [F,B,]2 B, B,3 | B,,B,, B,,B,, B,,B,, | %28
 E,2 E, .E,3 | [A,EA]3 [F,B,]2 [F,B,] | [E,B,]3 [E,E]2 [E,B,] | [B,,B,]2 [B,,B,] [B,,B,]2 [B,,A,] | %32
 [E,G,]6 |] %33
V:3
 x6 | x6 | x6 | x6 | x6 | x6 | x6 | x6 | x6 | x6 | x6 | x6 | x6 | x6 | x6 |[M:5/8] x5 |[M:1/8] x | %17
[M:3/4] x6 | z2 F F3 | [B,FA][B,=EG] [B,FA][FA] [FA][DAc] | [EG]2 [DA] [EG]3 | x6 | x6 | x6 | %24
 z2 F F2 c | x6 | z2 F F3 | [B,FA][B,EG] [B,FA][FA] [FA][DAc] | E2 E .E3 | x6 | x6 | x6 | x6 |] %33

